src/assets/protocols/sweep-n-flip.svg

<svg width="40" height="40" viewBox="0 0 40 40" fill="none" xmlns="http://www.w3.org/2000/svg">
<rect width="40" height="40" fill="#FF2E00"/>
<path d="M14.248 9.00808L22.3298 16.5438C22.5984 16.805 23.0302 16.8406 23.2142 16.6269L27.9615 10.9877L28.8668 9.89402L32.0084 6.14101C32.3185 5.76111 33.1822 6.21521 33.1095 6.7168L32.2191 11.8722L31.9609 13.3517L29.0879 29.7246C29.0181 30.1267 28.3488 30.1104 28.0372 29.683L13.4021 9.4325C12.991 8.88491 13.7226 8.51391 14.248 9.00956V9.00808Z" fill="white"/>
<path d="M25.7531 30.9919L17.6713 23.4562C17.4027 23.195 16.9708 23.1594 16.7868 23.3731L12.0395 29.0123L11.1328 30.106L7.99119 33.859C7.67956 34.2389 6.81736 33.7848 6.89008 33.2832L7.78047 28.1278L8.03868 26.6483L10.9117 10.2754C10.9814 9.87326 11.6507 9.88959 11.9624 10.317L26.5975 30.5675C27.0085 31.1151 26.2769 31.4861 25.7501 30.9904L25.7531 30.9919Z" fill="white"/>
</svg>

<svg xmlns="http://www.w3.org/2000/svg" viewBox="0 0 40 40"><path fill="#FF2E00" d="M0 0h40v40H0z"/><path fill="#fff" d="m14.248 9.008 8.082 7.536c.268.261.7.297.884.083l4.748-5.64.905-1.093 3.141-3.753c.31-.38 1.174.074 1.101.576l-.89 5.155-.258 1.48-2.873 16.373c-.07.402-.74.385-1.05-.042L13.401 9.433c-.411-.548.32-.92.846-.423zm11.505 21.984-8.082-7.536c-.268-.261-.7-.297-.884-.083l-4.747 5.64-.907 1.093-3.142 3.753c-.311.38-1.174-.074-1.1-.576l.89-5.155.258-1.48 2.873-16.373c.07-.402.739-.385 1.05.042l14.636 20.25c.41.548-.321.92-.848.423z"/></svg>
